images/furniture/cafe-seating-occupied.svg

<?xml version="1.0" standalone="no"?><!DOCTYPE svg PUBLIC "-//W3C//DTD SVG 1.1//EN" "http://www.w3.org/Graphics/SVG/1.1/DTD/svg11.dtd"><svg width="144px" height="240px" version="1.1" xmlns="http://www.w3.org/2000/svg" xmlns:xlink="http://www.w3.org/1999/xlink" xml:space="preserve" style="fill-rule:evenodd;clip-rule:evenodd;stroke-linejoin:round;stroke-miterlimit:1.41421;"><g><g id="cafe-seating-occupied" transform="matrix(1,0,0,1,-12.5,27)"><g id="umbrella" transform="matrix(1,0,0,1,-7.07203,0)"><g transform="matrix(1,0,0,1.08664,2,-12.828)"><path d="M93.1338,47.0547l-4.936,0.015l-0.056,100.598l5.273,0.389l-0.281,-101.002Z" style="fill:#564038;fill-rule:nonzero;"/></g><g transform="matrix(0.996369,0,0,0.996369,0.211418,-9.81329)"><path d="M93.0327,10l-66.2239,27.6l-1.36132,10.3874l48.1796,3.43658l84.3125,-1.798l-1.42378,-11.126l-63.4831,-28.5Z" style="fill:#ae1f25;fill-rule:nonzero;"/></g><g transform="matrix(0.996369,0,0,0.996369,0.211418,-9.81329)"><path d="M93,10l-18.4143,30.03l81.8953,-1.57903l-63.481,-28.451Z" style="fill:#6b151c;fill-rule:nonzero;"/></g><g transform="matrix(0.996369,0,0,0.996369,0.211418,-9.81329)"><path d="M26.762,37.6l47.8235,2.4307l-0.935572,11.3933l-48.2024,-3.43688l1.31452,-10.3871Z" style="fill:#6b151c;fill-rule:nonzero;"/></g></g><g id="table" transform="matrix(1,0,0,1,-3.9863,0)"><path d="M85.6104,210l0.99,-60l6.954,0l0.991,60l-8.935,0Z" style="fill:#2a2b2a;fill-rule:nonzero;"/><path d="M126.653,147.66l-1.507,5.936l-72.8,0.055l-2.027,-6.272l76.334,0.281Z" style="fill:#2a2b2a;fill-rule:nonzero;"/><path d="M77.8611,213l23.676,0l-3.122,-8.389l-17.527,-0.04l-3.027,8.429Z" style="fill:#2a2b2a;fill-rule:nonzero;"/></g><g id="salad" transform="matrix(1,0,0,1,60.4009,128.168)"><path d="M24.9844,10.0313l1.687,-1.734l-1.546,-2.438l4.468,0.531l1.532,1.688l2.625,-1.328l4.531,2.453l1.219,-1.078l1.625,2l-16.141,-0.094Z" style="fill:#679a45;fill-rule:nonzero;"/><path d="M26.7959,19.3906l-3.127,-9.402l18.691,-0.036l-3.043,9.479l-12.521,-0.041Z" style="fill:#f6f1e1;fill-rule:nonzero;"/></g><g id="coffee" transform="matrix(1,0,0,1,6.7397,128.068)"><path d="M69.751,15.1338l-1.372,0.456l0.583,-1.815l0.796,0.255l-0.007,1.104ZM71.445,12.6778l-1.932,-0.62l0.675,-2.105l-13.686,0.035l3.127,9.403l7.517,0.041l0.557,-1.738l3.721,-1.238l0.021,-3.778Z" style="fill:#f6f1e1;fill-rule:nonzero;"/></g><g id="drink" transform="matrix(0.5,0,0,0.5,23.7039,-20.3)"><g transform="matrix(1,0,0,1,2,0)"><path d="M192,296.25l-16,-4.373l-2.666,26.123l-4.334,0l3.875,-30.5l19.125,4.002l0,4.748Z" style="fill:#c1bebb;fill-rule:nonzero;"/></g><g transform="matrix(2,0,0,2,150.749,296.747)"><path d="M6.374,4l1.733,15l6.77,0l1.321,-15l-9.824,0Z" style="fill:#f6f1e1;fill-rule:nonzero;"/><path d="M6.7207,6.9854l9.203,-0.016l-1.047,12.657l-6.986,-0.017l-1.17,-12.624Z" style="fill:#978974;fill-rule:nonzero;"/></g></g><g id="person-right" transform="matrix(1,0,0,1,-6.4874,0)"><path d="M103.4,208.46l1.569,4.54l16.532,0l1.776,-6.124l-8.043,-0.666l-11.834,2.25Z" style="fill:#564038;fill-rule:nonzero;"/><path d="M117.174,208.314l9.313,-36.515l3.833,2.494l-7.896,34.271l-5.25,-0.25Z" style="fill:#c0bdbb;fill-rule:nonzero;"/><path d="M158.49,135l-7.365,38.959l-24.791,-0.042l-5.489,39.083l4.458,0l4.322,-33.999l20.94,-0.032l5.015,34.031l4.25,0l-4.528,-33.357l6.161,-44.643l-2.973,0Z" style="fill:#564038;fill-rule:nonzero;"/><path d="M136.533,158.001l-20.75,5.625l-6.252,42.584l8.127,0.666l8.617,-32.883l24.849,-0.056l2.784,-14.561l-17.375,-1.375Z" style="fill:#e3e1db;fill-rule:nonzero;"/><path d="M97.7346,208.46l1.569,4.54l16.531,0l1.776,-6.124l-8.042,-0.666l-11.834,2.25Z" style="fill:#745b4d;fill-rule:nonzero;"/><path d="M136.486,158.001l17.437,1.391l6.396,-33.6l-8,-0.457l-7,7.792l-8.833,24.874Z" style="fill:#1f4d6b;fill-rule:nonzero;"/><path d="M151.419,132.667l3.469,3.755l-14.149,14.534l-17.5,-10.3l2.646,-1.843l14.536,7.099l10.998,-13.245Z" style="fill:#cdaa97;fill-rule:nonzero;"/><path d="M124.585,141.335l-5.349,-0.084l-2.875,-4.625l3.5,-1.25l7.369,4.115l-2.645,1.844Z" style="fill:#cdaa97;fill-rule:nonzero;"/><path d="M123.615,135.379l-1.555,1.206l4.156,2.47l-2.601,-3.676Z" style="fill:#cdaa97;fill-rule:nonzero;"/><path d="M151.486,128.876l-2.646,6.917l5.917,3.625l4.948,-10.261l-8.219,-0.281Z" style="fill:#366388;fill-rule:nonzero;"/><path d="M159.689,129.142l0.609,-3.344l-7.979,-0.463l-7,7.792l6.001,-1.751l8.369,-2.234Z" style="fill:#366388;fill-rule:nonzero;"/><path d="M159.611,120.252l3.376,-9.125l-14.501,-4.417l-2.502,8.25l1.917,0.333l0.501,5.75l5.501,-0.458" style="fill:#cdaa97;fill-rule:nonzero;"/><path d="M160.314,125.814l-0.744,-6.521l-5.708,0.334l-1.519,5.717l7.971,0.47Z" style="fill:#aa8b7e;fill-rule:nonzero;"/><path d="M153.61,121.002l1.329,-4.704l2.734,0.392l1.407,-4.439l-2.985,0l0.703,-2.516l6.189,1.725l-3.293,8.896l-6.084,0.646Z" style="fill:#aa8b7e;fill-rule:nonzero;"/><path d="M157.174,119.688l-2.023,-1.562l-6.834,1l-0.08,3.833l8.937,-3.271Z" style="fill:#2a2b2a;fill-rule:nonzero;"/><path d="M152.024,107.784l-9.786,-0.034l-1.835,-3.499l9.64,-0.286l1.981,3.819Z" style="fill:#694;fill-rule:nonzero;"/><path d="M149.113,107.585l13.874,3.875l-0.291,-7.793l-9.917,-2.375l-4.584,2.834l0.918,3.459Z" style="fill:#694;fill-rule:nonzero;"/><path d="M156.799,109.735l5.897,-6.068l0.291,7.793l-6.188,-1.725Z" style="fill:#36803f;fill-rule:nonzero;"/></g><g id="person-left" transform="matrix(1,0,0,1,6.5,0)"><path d="M48.4443,206.876l1.777,6.124l16.531,0l1.569,-4.54l-11.834,-2.25l-8.043,0.666Z" style="fill:#2a2b2a;fill-rule:nonzero;"/><path d="M54.5479,208.314l-9.313,-36.515l-3.833,2.494l7.896,34.271l5.25,-0.25Z" style="fill:#679a45;fill-rule:nonzero;"/><path d="M10.2591,135l6.161,44.643l-4.528,33.357l4.249,0l5.016,-34.031l20.94,0.032l4.322,33.999l4.458,0l-5.489,-39.083l-24.792,0.042l-7.364,-38.959l-2.973,0Z" style="fill:#564038;fill-rule:nonzero;"/><path d="M32.0005,160.502l20.935,4.125l9.255,41.583l-8.127,0.666l-8.617,-32.883l-24.849,-0.056l-2.784,-14.561l14.187,1.126Z" style="fill:#89ba6a;fill-rule:nonzero;"/><path d="M54.1107,206.876l1.777,6.124l16.53,0l1.569,-4.54l-11.834,-2.25l-8.042,0.666Z" style="fill:#5c5e5f;fill-rule:nonzero;"/><path d="M31.8335,160.502l-14.036,0.892l-6.395,-35.602l8,-0.457l8.223,9.54l0.375,6.375l3.833,19.252Z" style="fill:#ef9c74;fill-rule:nonzero;"/><path d="M20.3027,132.667l-3.469,3.755l20.041,12.641l22.521,-6.844l-2.646,-1.844l-19.556,3.644l-16.891,-11.352Z" style="fill:#e1c5b5;fill-rule:nonzero;"/><path d="M59.3867,142.21l5.349,-0.084l2.875,-4.625l-3.5,-1.25l-7.369,4.115l2.645,1.844Z" style="fill:#e1c5b5;fill-rule:nonzero;"/><path d="M60.3564,136.254l1.555,1.206l-4.156,2.47l2.601,-3.676Z" style="fill:#e1c5b5;fill-rule:nonzero;"/><path d="M12.125,131.188l7.25,8.625l5.875,-4l-3.812,-4.313l-8.626,-2.562l-0.687,2.25Z" style="fill:#f3ac8a;fill-rule:nonzero;"/><path d="M12.0322,129.142l-0.609,-3.344l7.979,-0.463l8.254,9.603l-7.255,-3.562l-8.369,-2.234Z" style="fill:#f3ac8a;fill-rule:nonzero;"/><path d="M12.1104,120.252l-3.376,-9.125l14.501,-4.417l2.502,8.25l-1.917,0.333l-0.501,5.75l-5.501,-0.458" style="fill:#e1c5b5;fill-rule:nonzero;"/><path d="M11.4072,125.814l0.744,-6.521l5.552,0.348l1.675,5.703l3.841,4.375l-11.812,-3.905Z" style="fill:#ceab97;fill-rule:nonzero;"/><path d="M18.1113,121.002l-1.329,-4.704l-2.734,0.392l-1.407,-4.856l2.985,0l-0.703,-2.099l-6.189,1.725l3.293,8.896l6.084,0.646Z" style="fill:#ceab97;fill-rule:nonzero;"/><path d="M23.625,107.75l-5.91,5.437l-2.089,-1.187l-2.626,0l1.125,4.25l2.657,0.048l-4.345,14.952l-6.437,0.125l2.625,-25.75l6.875,-4l6.75,1.5l1.375,4.625Z" style="fill:#2a2b2a;fill-rule:nonzero;"/></g></g></g></svg>

<?xml version="1.0" encoding="UTF-8" standalone="no"?>
<!DOCTYPE svg PUBLIC "-//W3C//DTD SVG 1.1//EN" "http://www.w3.org/Graphics/SVG/1.1/DTD/svg11.dtd">
<svg width="100%" height="100%" viewBox="0 0 200 280" version="1.1" xmlns="http://www.w3.org/2000/svg" xmlns:xlink="http://www.w3.org/1999/xlink" xml:space="preserve" xmlns:serif="http://www.serif.com/" style="fill-rule:evenodd;clip-rule:evenodd;stroke-linejoin:round;stroke-miterlimit:2;">
    <g id="cafe-seating-occupied" transform="matrix(1.27,0,0,1.27,-7.315,9.49)">
        <g id="umbrella" transform="matrix(1,0,0,1,-7.07203,0)">
            <g transform="matrix(1,0,0,1.08664,2,-12.828)">
                <path d="M93.134,47.055L88.198,47.07L88.142,147.668L93.415,148.057L93.134,47.055Z" style="fill:rgb(86,64,56);fill-rule:nonzero;"/>
            </g>
            <g transform="matrix(0.996369,0,0,0.996369,0.211418,-9.81329)">
                <path d="M93.033,10L26.809,37.6L25.447,47.987L73.627,51.424L157.94,49.626L156.516,38.5L93.033,10Z" style="fill:rgb(174,31,37);fill-rule:nonzero;"/>
            </g>
            <g transform="matrix(0.996369,0,0,0.996369,0.211418,-9.81329)">
                <path d="M93,10L74.586,40.03L156.481,38.451L93,10Z" style="fill:rgb(107,21,28);fill-rule:nonzero;"/>
            </g>
            <g transform="matrix(0.996369,0,0,0.996369,0.211418,-9.81329)">
                <path d="M26.762,37.6L74.586,40.031L73.65,51.424L25.447,47.987L26.762,37.6Z" style="fill:rgb(107,21,28);fill-rule:nonzero;"/>
            </g>
        </g>
        <g id="table" transform="matrix(1,0,0,1,-3.9863,0)">
            <path d="M85.61,210L86.6,150L93.554,150L94.545,210L85.61,210Z" style="fill:rgb(42,43,42);fill-rule:nonzero;"/>
            <path d="M126.653,147.66L125.146,153.596L52.346,153.651L50.319,147.379L126.653,147.66Z" style="fill:rgb(42,43,42);fill-rule:nonzero;"/>
            <path d="M77.861,213L101.537,213L98.415,204.611L80.888,204.571L77.861,213Z" style="fill:rgb(42,43,42);fill-rule:nonzero;"/>
        </g>
        <g id="salad" transform="matrix(1,0,0,1,60.4009,128.168)">
            <path d="M24.984,10.031L26.671,8.297L25.125,5.859L29.593,6.39L31.125,8.078L33.75,6.75L38.281,9.203L39.5,8.125L41.125,10.125L24.984,10.031Z" style="fill:rgb(103,154,69);fill-rule:nonzero;"/>
            <path d="M26.796,19.391L23.669,9.989L42.36,9.953L39.317,19.432L26.796,19.391Z" style="fill:rgb(246,241,225);fill-rule:nonzero;"/>
        </g>
        <g id="coffee" transform="matrix(1,0,0,1,6.7397,128.068)">
            <path d="M69.751,15.134L68.379,15.59L68.962,13.775L69.758,14.03L69.751,15.134ZM71.445,12.678L69.513,12.058L70.188,9.953L56.502,9.988L59.629,19.391L67.146,19.432L67.703,17.694L71.424,16.456L71.445,12.678Z" style="fill:rgb(246,241,225);fill-rule:nonzero;"/>
        </g>
        <g id="drink" transform="matrix(0.5,0,0,0.5,23.7039,-20.3)">
            <g transform="matrix(1,0,0,1,2,0)">
                <path d="M192,296.25L176,291.877L173.334,318L169,318L172.875,287.5L192,291.502L192,296.25Z" style="fill:rgb(193,190,187);fill-rule:nonzero;"/>
            </g>
            <g transform="matrix(2,0,0,2,150.749,296.747)">
                <path d="M6.374,4L8.107,19L14.877,19L16.198,4L6.374,4Z" style="fill:rgb(246,241,225);fill-rule:nonzero;"/>
                <path d="M6.721,6.985L15.924,6.969L14.877,19.626L7.891,19.609L6.721,6.985Z" style="fill:rgb(151,137,116);fill-rule:nonzero;"/>
            </g>
        </g>
        <g id="person-right" transform="matrix(1,0,0,1,-6.4874,0)">
            <path d="M103.4,208.46L104.969,213L121.501,213L123.277,206.876L115.234,206.21L103.4,208.46Z" style="fill:rgb(86,64,56);fill-rule:nonzero;"/>
            <path d="M117.174,208.314L126.487,171.799L130.32,174.293L122.424,208.564L117.174,208.314Z" style="fill:rgb(192,189,187);fill-rule:nonzero;"/>
            <path d="M158.49,135L151.125,173.959L126.334,173.917L120.845,213L125.303,213L129.625,179.001L150.565,178.969L155.58,213L159.83,213L155.302,179.643L161.463,135L158.49,135Z" style="fill:rgb(86,64,56);fill-rule:nonzero;"/>
            <path d="M136.533,158.001L115.783,163.626L109.531,206.21L117.658,206.876L126.275,173.993L151.124,173.937L153.908,159.376L136.533,158.001Z" style="fill:rgb(227,225,219);fill-rule:nonzero;"/>
            <path d="M97.735,208.46L99.304,213L115.835,213L117.611,206.876L109.569,206.21L97.735,208.46Z" style="fill:rgb(116,91,77);fill-rule:nonzero;"/>
            <path d="M136.486,158.001L153.923,159.392L160.319,125.792L152.319,125.335L145.319,133.127L136.486,158.001Z" style="fill:rgb(31,77,107);fill-rule:nonzero;"/>
            <path d="M151.419,132.667L154.888,136.422L140.739,150.956L123.239,140.656L125.885,138.813L140.421,145.912L151.419,132.667Z" style="fill:rgb(205,170,151);fill-rule:nonzero;"/>
            <path d="M124.585,141.335L119.236,141.251L116.361,136.626L119.861,135.376L127.23,139.491L124.585,141.335Z" style="fill:rgb(205,170,151);fill-rule:nonzero;"/>
            <path d="M123.615,135.379L122.06,136.585L126.216,139.055L123.615,135.379Z" style="fill:rgb(205,170,151);fill-rule:nonzero;"/>
            <path d="M151.486,128.876L148.84,135.793L154.757,139.418L159.705,129.157L151.486,128.876Z" style="fill:rgb(54,99,136);fill-rule:nonzero;"/>
            <path d="M159.689,129.142L160.299,125.798L152.319,125.335L145.319,133.127L151.32,131.376L159.689,129.142Z" style="fill:rgb(54,99,136);fill-rule:nonzero;"/>
            <path d="M159.611,120.252L162.987,111.127L148.486,106.71L145.984,114.96L147.901,115.293L148.402,121.043L153.903,120.585" style="fill:rgb(205,170,151);fill-rule:nonzero;"/>
            <path d="M160.314,125.814L159.57,119.293L153.862,119.627L152.343,125.344L160.314,125.814Z" style="fill:rgb(170,139,126);fill-rule:nonzero;"/>
            <path d="M153.61,121.002L154.939,116.298L157.673,116.69L159.08,112.251L156.095,112.251L156.798,109.735L162.987,111.46L159.694,120.356L153.61,121.002Z" style="fill:rgb(170,139,126);fill-rule:nonzero;"/>
            <path d="M157.174,119.688L155.151,118.126L148.317,119.126L148.237,122.959L157.174,119.688Z" style="fill:rgb(42,43,42);fill-rule:nonzero;"/>
            <path d="M152.024,107.784L142.238,107.75L140.403,104.251L150.043,103.965L152.024,107.784Z" style="fill:rgb(102,153,68);fill-rule:nonzero;"/>
            <path d="M149.113,107.585L162.987,111.46L162.696,103.667L152.779,101.292L148.195,104.126L149.113,107.585Z" style="fill:rgb(102,153,68);fill-rule:nonzero;"/>
            <path d="M156.799,109.735L162.696,103.667L162.987,111.46L156.799,109.735Z" style="fill:rgb(54,128,63);fill-rule:nonzero;"/>
        </g>
        <g id="person-left" transform="matrix(1,0,0,1,6.5,0)">
            <path d="M48.444,206.876L50.221,213L66.752,213L68.321,208.46L56.487,206.21L48.444,206.876Z" style="fill:rgb(42,43,42);fill-rule:nonzero;"/>
            <path d="M54.548,208.314L45.235,171.799L41.402,174.293L49.298,208.564L54.548,208.314Z" style="fill:rgb(103,154,69);fill-rule:nonzero;"/>
            <path d="M10.259,135L16.42,179.643L11.892,213L16.141,213L21.157,178.969L42.097,179.001L46.419,213L50.877,213L45.388,173.917L20.596,173.959L13.232,135L10.259,135Z" style="fill:rgb(86,64,56);fill-rule:nonzero;"/>
            <path d="M32.001,160.502L52.936,164.627L62.191,206.21L54.064,206.876L45.447,173.993L20.598,173.937L17.814,159.376L32.001,160.502Z" style="fill:rgb(137,186,106);fill-rule:nonzero;"/>
            <path d="M54.111,206.876L55.888,213L72.418,213L73.987,208.46L62.153,206.21L54.111,206.876Z" style="fill:rgb(92,94,95);fill-rule:nonzero;"/>
            <path d="M31.834,160.502L17.798,161.394L11.403,125.792L19.403,125.335L27.626,134.875L28.001,141.25L31.834,160.502Z" style="fill:rgb(239,156,116);fill-rule:nonzero;"/>
            <path d="M20.303,132.667L16.834,136.422L36.875,149.063L59.396,142.219L56.75,140.375L37.194,144.019L20.303,132.667Z" style="fill:rgb(225,197,181);fill-rule:nonzero;"/>
            <path d="M59.387,142.21L64.736,142.126L67.611,137.501L64.111,136.251L56.742,140.366L59.387,142.21Z" style="fill:rgb(225,197,181);fill-rule:nonzero;"/>
            <path d="M60.356,136.254L61.911,137.46L57.755,139.93L60.356,136.254Z" style="fill:rgb(225,197,181);fill-rule:nonzero;"/>
            <path d="M12.125,131.188L19.375,139.813L25.25,135.813L21.438,131.5L12.812,128.938L12.125,131.188Z" style="fill:rgb(243,172,138);fill-rule:nonzero;"/>
            <path d="M12.032,129.142L11.423,125.798L19.402,125.335L27.656,134.938L20.401,131.376L12.032,129.142Z" style="fill:rgb(243,172,138);fill-rule:nonzero;"/>
            <path d="M12.11,120.252L8.734,111.127L23.235,106.71L25.737,114.96L23.82,115.293L23.319,121.043L17.818,120.585" style="fill:rgb(225,197,181);fill-rule:nonzero;"/>
            <path d="M11.407,125.814L12.151,119.293L17.703,119.641L19.378,125.344L23.219,129.719L11.407,125.814Z" style="fill:rgb(206,171,151);fill-rule:nonzero;"/>
            <path d="M18.111,121.002L16.782,116.298L14.048,116.69L12.641,111.834L15.626,111.834L14.923,109.735L8.734,111.46L12.027,120.356L18.111,121.002Z" style="fill:rgb(206,171,151);fill-rule:nonzero;"/>
            <path d="M23.625,107.75L17.715,113.187L15.626,112L13,112L14.125,116.25L16.782,116.298L12.437,131.25L6,131.375L8.625,105.625L15.5,101.625L22.25,103.125L23.625,107.75Z" style="fill:rgb(42,43,42);fill-rule:nonzero;"/>
        </g>
    </g>
</svg>
